X: 76
T:Martin Wynne's Reel No. 1
T:Martin Wynn's Reel No. 1
T:Martin Wynne's Reel
M:C|
L:1/8
R:Reel
K:D
AF~F2 GE~E2|DF~F2 EFDB,|A,B,DE ~F3B|ABde fedB|!
AF~F2 GE~E2|DFAF EFDB,|A,B,DE ~F3B|1ABde fddB:|2ABde fdde|!
|:f2af gfeg|fedf edBc|dBAF DEFB|ABde feeg|!
f2af gfeg|fedf edBc|dBAF DEFB|1ABde fdde:|2ABde fddB|]!
